X:1
T:Maricopa, 87.87 D
T:Maricopa, 87.87 D
T:James Holmes Rosecrans, 1899
T:Public Domain Courtesy of the Cyber Hymnal™
C:James Holmes Rosecrans, 1899
Z:Public Domain
Z:Courtesy of the Cyber Hymnal™
%%score ( 1 2 ) ( 3 4 )
L:1/8
Q:1/4=108
M:4/4
K:C
V:1 treble 
V:2 treble 
V:3 bass 
V:4 bass 
V:1
 C3 C [CE]2 C2 | [CE]2 [DF]2 [EG] [Ec]3 | [Fc] [FA]3 [Ec] [EG]3 | [CE]2 [CE]2 [B,D]4 | %4
 C3 C [CE]2 C2 | [CE]2 [DF]2 [EG] [Ec]3 | [Fc] [FA]3 [Ec] [EG]3 | [FB]2 [Fd]2 [Ec]4 | %8
 [EG]3 [FA] [EG]3 [FA] | ([EG][Ge]) ([Fd][Ec]) [Fc]2 [FB]2 | [DF][CE][DF][EG] [FB]2 [FA]2 | %11
 (G4 c2) z2 | [EG]3 [FA] [EG]3 [FA] | (Gc) ([GB][Ac]) [Fd]2 [FA]2 | %14
 [EG][EG][^D^F][EG] [=FA]2 [FB]2 | [Ec]6 z2 |] %16
V:2
 C3 C x C2 x | x8 | x8 | x8 | C3 C x C2 x | x8 | x8 | x8 | x8 | x8 | x8 | E6 x2 | x8 | E2 x6 | x8 | %15
 x8 |] %16
V:3
 [C,E,]3 [C,E,] [C,G,]2 [C,E,]2 | [C,G,]2 [C,G,]2 [C,C] [C,G,]3 | [F,A,] [F,C]3 [C,C] [C,C]3 | %3
 [C,G,]2 [C,G,]2 G,4 | [C,E,]3 [C,E,] [C,G,]2 [C,E,]2 | [C,G,]2 [C,G,]2 [C,C] [C,G,]3 | %6
 [F,A,] [F,C]3 [C,C] [C,C]3 | [G,D]2 [G,B,]2 [C,C]4 | [C,C]3 [C,C] [C,C]3 [C,C] | %9
 [C,C]2 (CG,) [D,G,]2 [D,G,]2 | G,G,G,G, G,2 [G,B,]2 | (C4 G,2) z2 | [C,C]3 [C,C] [C,C]3 [C,C] | %13
 (CG,) G,2 [F,A,]2 [F,C]2 | [G,C][G,C][G,C][G,C] [G,B,]2 G,2 | [C,G,]6 z2 |] %16
V:4
 x8 | x8 | x8 | x4 G,4 | x8 | x8 | x8 | x8 | x8 | x2 C,2 x4 | G,G,G,G, G,2 x2 | C,6 x2 | x8 | %13
 C,2 (D,E,) x4 | x6 G,2 | x8 |] %16

